public/images/bell 淺.svg

<?xml version="1.0" encoding="UTF-8"?>
<svg xmlns="http://www.w3.org/2000/svg" xmlns:xlink="http://www.w3.org/1999/xlink" width="512px" height="512px" viewBox="0 0 512 512" version="1.1">
<g id="surface1">
<path style=" stroke:none;fill-rule:nonzero;fill:rgb(0%,0%,0%);fill-opacity:1;" d="M 381.667969 225.917969 C 381.667969 128.332031 329.167969 95.082031 280.082031 87.667969 C 280.082031 87.167969 280.167969 86.667969 280.167969 86.082031 C 280.167969 73.832031 269.332031 64 256 64 C 242.667969 64 232.167969 73.832031 232.167969 86.082031 C 232.167969 86.667969 232.167969 87.167969 232.332031 87.667969 C 183.082031 95.167969 130.332031 128.5 130.332031 226.082031 C 130.332031 339.917969 102 352.082031 64 384.082031 L 448 384.082031 C 410.167969 352 381.667969 339.667969 381.667969 225.917969 Z M 107.167969 368 C 115.832031 359 123.582031 349.582031 129.917969 336.167969 C 141.917969 310.917969 147.332031 277 147.332031 226 C 147.332031 179.582031 159.832031 145.582031 184.417969 124.832031 C 207.332031 105.5 236.082031 101.5 256.167969 101.5 C 276.332031 101.5 305.082031 105.5 327.832031 124.832031 C 352.332031 145.5 364.832031 179.332031 364.832031 225.667969 C 364.832031 309.5 379.667969 343 405.082031 368 Z M 107.167969 368 "/>
<path style=" stroke:none;fill-rule:nonzero;fill:rgb(0%,0%,0%);fill-opacity:1;" d="M 256.167969 448 C 283 448 305 428.082031 307.917969 405 L 204.5 405 C 207.332031 428.082031 229.417969 448 256.167969 448 Z M 256.167969 448 "/>
</g>
</svg>

<?xml version="1.0" ?><!DOCTYPE svg  PUBLIC '-//W3C//DTD SVG 1.1//EN'  'http://www.w3.org/Graphics/SVG/1.1/DTD/svg11.dtd'><svg height="512px" id="Layer_1" style="enable-background:new 0 0 512 512;" version="1.1" viewBox="0 0 512 512" width="512px" xml:space="preserve" xmlns="http://www.w3.org/2000/svg" xmlns:xlink="http://www.w3.org/1999/xlink"><g><path d="M381.7,225.9c0-97.6-52.5-130.8-101.6-138.2c0-0.5,0.1-1,0.1-1.6c0-12.3-10.9-22.1-24.2-22.1c-13.3,0-23.8,9.8-23.8,22.1   c0,0.6,0,1.1,0.1,1.6c-49.2,7.5-102,40.8-102,138.4c0,113.8-28.3,126-66.3,158h384C410.2,352,381.7,339.7,381.7,225.9z M107.2,368   c8.6-9,16.4-18.4,22.7-31.8c12-25.3,17.4-59.2,17.4-110.2c0-46.4,12.5-80.4,37.1-101.2c22.9-19.3,51.7-23.3,71.8-23.3   c20.1,0,48.9,4,71.6,23.3c24.5,20.7,37,54.5,37,100.9c0,83.8,14.9,117.3,40.3,142.3H107.2z"/><path d="M256.2,448c26.8,0,48.8-19.9,51.7-43H204.5C207.3,428.1,229.4,448,256.2,448z"/></g></svg>
